source/assets/svg-files/deliveries-home.svg

<svg width="60" height="60" viewBox="0 0 60 60" fill="none" xmlns="http://www.w3.org/2000/svg">
<circle cx="30" cy="30" r="30" fill="#B796FF"/>
<path d="M13.4418 47C13.3564 47 13.2951 46.9813 13.2578 46.944C13.2204 46.9067 13.2018 46.8453 13.2018 46.76V41.64C13.2018 41.5547 13.2204 41.4933 13.2578 41.456C13.2951 41.4187 13.3564 41.4 13.4418 41.4H15.0578C15.8044 41.4 16.4018 41.624 16.8498 42.072C17.3031 42.5147 17.5298 43.224 17.5298 44.2C17.5298 45.1813 17.3031 45.8933 16.8498 46.336C16.4018 46.7787 15.8044 47 15.0578 47H13.4418ZM15.0018 46.392C15.5404 46.392 15.9751 46.216 16.3058 45.864C16.6364 45.512 16.8018 44.9573 16.8018 44.2C16.8018 43.448 16.6364 42.896 16.3058 42.544C15.9751 42.1867 15.5404 42.008 15.0018 42.008H13.9058V46.392H15.0018ZM20.3883 47.048C19.7216 47.048 19.2283 46.8747 18.9083 46.528C18.5883 46.1813 18.4283 45.6507 18.4283 44.936C18.4283 44.2267 18.5856 43.688 18.9003 43.32C19.2149 42.952 19.6789 42.768 20.2923 42.768C20.8363 42.768 21.2469 42.9467 21.5243 43.304C21.8016 43.656 21.9403 44.1733 21.9403 44.856C21.9403 44.904 21.9083 44.9707 21.8443 45.056C21.7803 45.1413 21.7243 45.184 21.6763 45.184H19.1483C19.1803 45.6267 19.2949 45.952 19.4923 46.16C19.6896 46.368 19.9856 46.472 20.3803 46.472C20.6043 46.472 20.7963 46.4453 20.9563 46.392C21.1216 46.3333 21.2576 46.2773 21.3643 46.224C21.4709 46.1653 21.5323 46.136 21.5483 46.136C21.6016 46.136 21.6603 46.1893 21.7243 46.296C21.7936 46.4027 21.8283 46.4827 21.8283 46.536C21.8283 46.6 21.7616 46.6747 21.6283 46.76C21.4949 46.84 21.3163 46.9093 21.0923 46.968C20.8736 47.0213 20.6389 47.048 20.3883 47.048ZM21.2283 44.608C21.2283 43.7653 20.9083 43.344 20.2683 43.344C19.5803 43.344 19.2069 43.7653 19.1483 44.608H21.2283ZM23.9888 47.048C23.7221 47.048 23.4821 46.968 23.2688 46.808C23.0608 46.6427 22.9568 46.3547 22.9568 45.944V41.16C22.9568 41.0427 23.0634 40.984 23.2768 40.984H23.3088C23.5221 40.984 23.6288 41.0427 23.6288 41.16V45.88C23.6288 46.104 23.6661 46.2587 23.7408 46.344C23.8208 46.4293 23.9274 46.472 24.0608 46.472C24.1621 46.472 24.2368 46.4667 24.2848 46.456C24.3381 46.44 24.3781 46.432 24.4048 46.432C24.4528 46.432 24.4928 46.4827 24.5248 46.584C24.5568 46.68 24.5728 46.7547 24.5728 46.808C24.5728 46.968 24.3781 47.048 23.9888 47.048ZM25.7238 47.016C25.5104 47.016 25.4038 46.9573 25.4038 46.84V42.976C25.4038 42.8587 25.5104 42.8 25.7238 42.8H25.7558C25.9691 42.8 26.0758 42.8587 26.0758 42.976V46.84C26.0758 46.9573 25.9691 47.016 25.7558 47.016H25.7238ZM25.7398 42.24C25.5051 42.24 25.3878 42.1813 25.3878 42.064V41.584C25.3878 41.4667 25.5051 41.408 25.7398 41.408C25.9744 41.408 26.0918 41.4667 26.0918 41.584V42.064C26.0918 42.1813 25.9744 42.24 25.7398 42.24ZM28.593 47.016C28.4063 47.016 28.2996 46.9733 28.273 46.888L26.985 43.04C26.969 42.992 26.961 42.9573 26.961 42.936C26.961 42.8453 27.0756 42.8 27.305 42.8H27.345C27.5316 42.8 27.6383 42.8427 27.665 42.928L28.481 45.48C28.5716 45.7733 28.6596 46.1067 28.745 46.48H28.777C28.7823 46.448 28.8116 46.3173 28.865 46.088C28.9183 45.8587 28.9903 45.6133 29.081 45.352L29.857 42.928C29.8836 42.8427 29.993 42.8 30.185 42.8H30.209C30.4063 42.8 30.505 42.8453 30.505 42.936C30.505 42.9627 30.497 43 30.481 43.048L29.193 46.888C29.1663 46.9733 29.0596 47.016 28.873 47.016H28.593ZM32.9977 47.048C32.331 47.048 31.8377 46.8747 31.5177 46.528C31.1977 46.1813 31.0377 45.6507 31.0377 44.936C31.0377 44.2267 31.195 43.688 31.5097 43.32C31.8243 42.952 32.2883 42.768 32.9017 42.768C33.4457 42.768 33.8563 42.9467 34.1337 43.304C34.411 43.656 34.5497 44.1733 34.5497 44.856C34.5497 44.904 34.5177 44.9707 34.4537 45.056C34.3897 45.1413 34.3337 45.184 34.2857 45.184H31.7577C31.7897 45.6267 31.9043 45.952 32.1017 46.16C32.299 46.368 32.595 46.472 32.9897 46.472C33.2137 46.472 33.4057 46.4453 33.5657 46.392C33.731 46.3333 33.867 46.2773 33.9737 46.224C34.0803 46.1653 34.1417 46.136 34.1577 46.136C34.211 46.136 34.2697 46.1893 34.3337 46.296C34.403 46.4027 34.4377 46.4827 34.4377 46.536C34.4377 46.6 34.371 46.6747 34.2377 46.76C34.1043 46.84 33.9257 46.9093 33.7017 46.968C33.483 47.0213 33.2483 47.048 32.9977 47.048ZM33.8377 44.608C33.8377 43.7653 33.5177 43.344 32.8777 43.344C32.1897 43.344 31.8163 43.7653 31.7577 44.608H33.8377ZM35.9502 47.016C35.7368 47.016 35.6302 46.9573 35.6302 46.84V44.032C35.6302 43.68 35.6142 43.4293 35.5822 43.28C35.5502 43.1253 35.5342 43.04 35.5342 43.024C35.5342 42.96 35.5848 42.9147 35.6862 42.888C35.7875 42.856 35.8808 42.84 35.9662 42.84C36.0408 42.84 36.0942 42.88 36.1262 42.96C36.1635 43.0347 36.1902 43.1147 36.2062 43.2C36.2275 43.2853 36.2408 43.3413 36.2462 43.368C36.5288 42.968 36.8382 42.768 37.1742 42.768C37.3288 42.768 37.4435 42.7947 37.5182 42.848C37.5982 42.896 37.6382 42.9733 37.6382 43.08C37.6382 43.1707 37.6222 43.2667 37.5902 43.368C37.5582 43.464 37.5208 43.512 37.4782 43.512C37.4515 43.512 37.3982 43.4987 37.3182 43.472C37.2435 43.44 37.1502 43.424 37.0382 43.424C36.8995 43.424 36.7662 43.472 36.6382 43.568C36.5102 43.6587 36.3982 43.7733 36.3022 43.912V46.84C36.3022 46.9573 36.1955 47.016 35.9822 47.016H35.9502ZM38.8878 47.016C38.6745 47.016 38.5678 46.9573 38.5678 46.84V42.976C38.5678 42.8587 38.6745 42.8 38.8878 42.8H38.9198C39.1332 42.8 39.2398 42.8587 39.2398 42.976V46.84C39.2398 46.9573 39.1332 47.016 38.9198 47.016H38.8878ZM38.9038 42.24C38.6692 42.24 38.5518 42.1813 38.5518 42.064V41.584C38.5518 41.4667 38.6692 41.408 38.9038 41.408C39.1385 41.408 39.2558 41.4667 39.2558 41.584V42.064C39.2558 42.1813 39.1385 42.24 38.9038 42.24ZM42.357 47.048C41.6904 47.048 41.197 46.8747 40.877 46.528C40.557 46.1813 40.397 45.6507 40.397 44.936C40.397 44.2267 40.5544 43.688 40.869 43.32C41.1837 42.952 41.6477 42.768 42.261 42.768C42.805 42.768 43.2157 42.9467 43.493 43.304C43.7704 43.656 43.909 44.1733 43.909 44.856C43.909 44.904 43.877 44.9707 43.813 45.056C43.749 45.1413 43.693 45.184 43.645 45.184H41.117C41.149 45.6267 41.2637 45.952 41.461 46.16C41.6584 46.368 41.9544 46.472 42.349 46.472C42.573 46.472 42.765 46.4453 42.925 46.392C43.0904 46.3333 43.2264 46.2773 43.333 46.224C43.4397 46.1653 43.501 46.136 43.517 46.136C43.5704 46.136 43.629 46.1893 43.693 46.296C43.7624 46.4027 43.797 46.4827 43.797 46.536C43.797 46.6 43.7304 46.6747 43.597 46.76C43.4637 46.84 43.285 46.9093 43.061 46.968C42.8424 47.0213 42.6077 47.048 42.357 47.048ZM43.197 44.608C43.197 43.7653 42.877 43.344 42.237 43.344C41.549 43.344 41.1757 43.7653 41.117 44.608H43.197ZM45.8535 47.072C45.6242 47.072 45.4109 47.0453 45.2135 46.992C45.0215 46.9333 44.8669 46.864 44.7495 46.784C44.6375 46.704 44.5815 46.632 44.5815 46.568C44.5815 46.5147 44.6135 46.4347 44.6775 46.328C44.7469 46.2213 44.8082 46.168 44.8615 46.168C44.8722 46.168 44.9229 46.1973 45.0135 46.256C45.1042 46.3147 45.2162 46.368 45.3495 46.416C45.4882 46.464 45.6402 46.488 45.8055 46.488C46.0615 46.488 46.2562 46.4373 46.3895 46.336C46.5229 46.2347 46.5895 46.088 46.5895 45.896C46.5895 45.704 46.5229 45.5573 46.3895 45.456C46.2615 45.3547 46.0615 45.2587 45.7895 45.168C45.5602 45.0933 45.3682 45.0133 45.2135 44.928C45.0589 44.8373 44.9309 44.712 44.8295 44.552C44.7282 44.3867 44.6775 44.176 44.6775 43.92C44.6775 43.696 44.7335 43.496 44.8455 43.32C44.9629 43.144 45.1202 43.008 45.3175 42.912C45.5202 42.8107 45.7495 42.76 46.0055 42.76C46.2775 42.76 46.5202 42.7947 46.7335 42.864C46.9522 42.9333 47.0615 43.0133 47.0615 43.104C47.0615 43.1733 47.0295 43.264 46.9655 43.376C46.9069 43.4827 46.8535 43.536 46.8055 43.536C46.7895 43.5307 46.7175 43.496 46.5895 43.432C46.4669 43.3627 46.2962 43.328 46.0775 43.328C45.8695 43.328 45.6989 43.376 45.5655 43.472C45.4322 43.568 45.3655 43.6987 45.3655 43.864C45.3655 44.0187 45.4082 44.1387 45.4935 44.224C45.5842 44.3093 45.7495 44.392 45.9895 44.472C46.4055 44.6107 46.7229 44.7787 46.9415 44.976C47.1602 45.1733 47.2695 45.456 47.2695 45.824C47.2695 46.0587 47.2055 46.272 47.0775 46.464C46.9549 46.6507 46.7842 46.8 46.5655 46.912C46.3522 47.0187 46.1149 47.072 45.8535 47.072Z" fill="#0000E5"/>
<path fill-rule="evenodd" clip-rule="evenodd" d="M23.75 29.375C22.7145 29.375 21.875 30.2145 21.875 31.25C21.875 32.2855 22.7145 33.125 23.75 33.125C24.7855 33.125 25.625 32.2855 25.625 31.25C25.625 30.2145 24.7855 29.375 23.75 29.375ZM20.625 31.25C20.625 29.5241 22.0241 28.125 23.75 28.125C25.4759 28.125 26.875 29.5241 26.875 31.25C26.875 32.9759 25.4759 34.375 23.75 34.375C22.0241 34.375 20.625 32.9759 20.625 31.25Z" fill="#0000E5"/>
<path fill-rule="evenodd" clip-rule="evenodd" d="M36.25 29.375C35.2145 29.375 34.375 30.2145 34.375 31.25C34.375 32.2855 35.2145 33.125 36.25 33.125C37.2855 33.125 38.125 32.2855 38.125 31.25C38.125 30.2145 37.2855 29.375 36.25 29.375ZM33.125 31.25C33.125 29.5241 34.5241 28.125 36.25 28.125C37.9759 28.125 39.375 29.5241 39.375 31.25C39.375 32.9759 37.9759 34.375 36.25 34.375C34.5241 34.375 33.125 32.9759 33.125 31.25Z" fill="#0000E5"/>
<path fill-rule="evenodd" clip-rule="evenodd" d="M20.2392 16.7133C20.0774 16.7133 19.9222 16.7796 19.8078 16.8977C19.6934 17.0157 19.6292 17.1758 19.6292 17.3427V30.5595H20.7954V31.8182H19.0191C18.6822 31.8182 18.4091 31.5364 18.4091 31.1889V17.3427C18.4091 16.8419 18.6019 16.3617 18.9451 16.0076C19.2883 15.6535 19.7538 15.4546 20.2392 15.4546H31.2201C31.557 15.4546 31.8301 15.7364 31.8301 16.084V16.7133H37.3205C37.5348 16.7133 37.7334 16.8293 37.8436 17.0189L41.5039 23.3126C41.5608 23.4104 41.5909 23.5223 41.5909 23.6364V31.1889C41.5909 31.5364 41.3177 31.8182 40.9808 31.8182H38.5227V30.5595H40.3708V24.2658H31.8301V30.5595H33.4091V31.8182H25.9091V30.5595H30.61V16.7133H20.2392ZM31.8301 17.9721V23.007H39.9034L36.9751 17.9721H31.8301Z" fill="#0000E5"/>
</svg>

<svg id="deliveries" xmlns="http://www.w3.org/2000/svg" width="60" height="60" viewBox="0 0 60 60">
  <circle id="Ellipse_1" data-name="Ellipse 1" cx="30" cy="30" r="30" fill="#b796ff"/>
  <path id="Path_1" data-name="Path 1" d="M13.442,47a.2.2,0,0,1-.24-.24V41.64a.2.2,0,0,1,.24-.24h1.616a2.422,2.422,0,0,1,1.792.672,2.872,2.872,0,0,1,.68,2.128,2.884,2.884,0,0,1-.68,2.136A2.438,2.438,0,0,1,15.058,47ZM15,46.392a1.706,1.706,0,0,0,1.3-.528,3.026,3.026,0,0,0,0-3.32,1.693,1.693,0,0,0-1.3-.536h-1.1v4.384Zm5.387.656a1.921,1.921,0,0,1-1.48-.52,2.282,2.282,0,0,1-.48-1.592A2.424,2.424,0,0,1,18.9,43.32a1.73,1.73,0,0,1,1.392-.552,1.464,1.464,0,0,1,1.232.536,2.47,2.47,0,0,1,.416,1.552.386.386,0,0,1-.1.2q-.1.128-.168.128H19.148a1.548,1.548,0,0,0,.344.976,1.169,1.169,0,0,0,.888.312,1.832,1.832,0,0,0,.576-.08,3.715,3.715,0,0,0,.408-.168.849.849,0,0,1,.184-.088q.08,0,.176.16a.521.521,0,0,1,.1.24q0,.1-.2.224a2.082,2.082,0,0,1-.536.208A2.967,2.967,0,0,1,20.388,47.048Zm.84-2.44q0-1.264-.96-1.264-1.032,0-1.12,1.264Zm2.76,2.44a1.17,1.17,0,0,1-.72-.24,1.045,1.045,0,0,1-.312-.864V41.16q0-.176.32-.176h.032q.32,0,.32.176v4.72a.719.719,0,0,0,.112.464.418.418,0,0,0,.32.128,1.129,1.129,0,0,0,.224-.016.463.463,0,0,1,.12-.024q.072,0,.12.152a.768.768,0,0,1,.048.224Q24.573,47.048,23.989,47.048Zm1.735-.032q-.32,0-.32-.176V42.976q0-.176.32-.176h.032q.32,0,.32.176V46.84q0,.176-.32.176Zm.016-4.776q-.352,0-.352-.176v-.48q0-.176.352-.176t.352.176v.48Q26.092,42.24,25.74,42.24Zm2.853,4.776q-.28,0-.32-.128L26.985,43.04a.381.381,0,0,1-.024-.1q0-.136.344-.136h.04q.28,0,.32.128l.816,2.552q.136.44.264,1h.032q.008-.048.088-.392a7.291,7.291,0,0,1,.216-.736l.776-2.424q.04-.128.328-.128h.024q.3,0,.3.136a.384.384,0,0,1-.024.112l-1.288,3.84q-.04.128-.32.128Zm4.4.032a1.921,1.921,0,0,1-1.48-.52,2.282,2.282,0,0,1-.48-1.592,2.424,2.424,0,0,1,.472-1.616,1.73,1.73,0,0,1,1.392-.552,1.464,1.464,0,0,1,1.232.536,2.47,2.47,0,0,1,.416,1.552.386.386,0,0,1-.1.2q-.1.128-.168.128H31.758a1.548,1.548,0,0,0,.344.976,1.169,1.169,0,0,0,.888.312,1.832,1.832,0,0,0,.576-.08,3.715,3.715,0,0,0,.408-.168.849.849,0,0,1,.184-.088q.08,0,.176.16a.521.521,0,0,1,.1.24q0,.1-.2.224a2.082,2.082,0,0,1-.536.208A2.967,2.967,0,0,1,33,47.048Zm.84-2.44q0-1.264-.96-1.264-1.032,0-1.12,1.264Zm2.112,2.408q-.32,0-.32-.176V44.032a4.062,4.062,0,0,0-.048-.752q-.048-.232-.048-.256,0-.1.152-.136a.935.935,0,0,1,.28-.048.165.165,0,0,1,.16.12.91.91,0,0,1,.08.24q.032.128.04.168a1.17,1.17,0,0,1,.928-.6.6.6,0,0,1,.344.08.25.25,0,0,1,.12.232.957.957,0,0,1-.048.288q-.048.144-.112.144a.653.653,0,0,1-.16-.04.713.713,0,0,0-.28-.048.658.658,0,0,0-.4.144,1.376,1.376,0,0,0-.336.344V46.84q0,.176-.32.176Zm2.938,0q-.32,0-.32-.176V42.976q0-.176.32-.176h.032q.32,0,.32.176V46.84q0,.176-.32.176ZM38.9,42.24q-.352,0-.352-.176v-.48q0-.176.352-.176t.352.176v.48Q39.256,42.24,38.9,42.24Zm3.453,4.808a1.921,1.921,0,0,1-1.48-.52,2.282,2.282,0,0,1-.48-1.592,2.425,2.425,0,0,1,.472-1.616,1.73,1.73,0,0,1,1.392-.552,1.464,1.464,0,0,1,1.232.536,2.47,2.47,0,0,1,.416,1.552.386.386,0,0,1-.1.2q-.1.128-.168.128H41.117a1.549,1.549,0,0,0,.344.976,1.169,1.169,0,0,0,.888.312,1.832,1.832,0,0,0,.576-.08,3.7,3.7,0,0,0,.408-.168.851.851,0,0,1,.184-.088q.08,0,.176.16a.52.52,0,0,1,.1.24q0,.1-.2.224a2.081,2.081,0,0,1-.536.208A2.966,2.966,0,0,1,42.357,47.048Zm.84-2.44q0-1.264-.96-1.264-1.032,0-1.12,1.264Zm2.657,2.464a2.448,2.448,0,0,1-.64-.08,1.722,1.722,0,0,1-.464-.208q-.168-.12-.168-.216a.545.545,0,0,1,.1-.24q.1-.16.184-.16a.789.789,0,0,1,.152.088,1.648,1.648,0,0,0,.336.16,1.386,1.386,0,0,0,.456.072.954.954,0,0,0,.584-.152.584.584,0,0,0,0-.88,2.027,2.027,0,0,0-.6-.288,3.36,3.36,0,0,1-.576-.24,1.126,1.126,0,0,1-.384-.376,1.193,1.193,0,0,1-.152-.632,1.094,1.094,0,0,1,.168-.6,1.172,1.172,0,0,1,.472-.408,1.518,1.518,0,0,1,.688-.152,2.353,2.353,0,0,1,.728.1q.328.1.328.24a.6.6,0,0,1-.1.272q-.088.16-.16.16-.024-.008-.216-.1a1.048,1.048,0,0,0-.512-.1.855.855,0,0,0-.512.144.458.458,0,0,0-.2.392.487.487,0,0,0,.128.36,1.4,1.4,0,0,0,.5.248,2.683,2.683,0,0,1,.952.5,1.083,1.083,0,0,1,.328.848,1.129,1.129,0,0,1-.192.64,1.313,1.313,0,0,1-.512.448A1.569,1.569,0,0,1,45.854,47.072Z" fill="#0000e5"/>
  <path id="Path_2" data-name="Path 2" d="M23.75,29.375a1.875,1.875,0,1,0,1.875,1.875A1.875,1.875,0,0,0,23.75,29.375ZM20.625,31.25a3.125,3.125,0,1,1,3.125,3.125A3.125,3.125,0,0,1,20.625,31.25Z" fill="#0000e5" fill-rule="evenodd"/>
  <path id="Path_3" data-name="Path 3" d="M36.25,29.375a1.875,1.875,0,1,0,1.875,1.875A1.875,1.875,0,0,0,36.25,29.375ZM33.125,31.25a3.125,3.125,0,1,1,3.125,3.125A3.125,3.125,0,0,1,33.125,31.25Z" fill="#0000e5" fill-rule="evenodd"/>
  <path id="Path_4" data-name="Path 4" d="M20.239,16.713a.6.6,0,0,0-.431.184.639.639,0,0,0-.179.445V30.559H20.8v1.259H19.019a.62.62,0,0,1-.61-.629V17.343a1.919,1.919,0,0,1,.536-1.335,1.8,1.8,0,0,1,1.294-.553H31.22a.62.62,0,0,1,.61.629v.629h5.49a.606.606,0,0,1,.523.306l3.66,6.294a.644.644,0,0,1,.087.324v7.552a.62.62,0,0,1-.61.629H38.523V30.559h1.848V24.266H31.83v6.294h1.579v1.259h-7.5V30.559h4.7V16.713ZM31.83,17.972v5.035H39.9l-2.928-5.035Z" fill="#0000e5" fill-rule="evenodd"/>
</svg>
